symbols/fr/S_F-A.svg

<?xml version="1.0" encoding="UTF-8"?>
<svg xmlns="http://www.w3.org/2000/svg" xmlns:xlink="http://www.w3.org/1999/xlink" width="16.561001" height="24" viewBox="0 0 16.561001 24">
<path fill-rule="nonzero" fill="rgb(0%, 0%, 0%)" fill-opacity="1" d="M 0 15.859375 L 8.140625 15.859375 L 8.140625 24 L 0 24 Z M 0 15.859375 "/>
<path fill-rule="nonzero" fill="rgb(0%, 0%, 0%)" fill-opacity="1" d="M 0 15.859375 L 8.140625 15.859375 L 8.140625 24 L 0 24 Z M 0 15.859375 "/>
<path fill-rule="nonzero" fill="rgb(0%, 0%, 0%)" fill-opacity="1" d="M 4.070312 0 L 12.492188 0 C 14.738281 0 16.5625 1.824219 16.5625 4.070312 C 16.5625 6.316406 14.738281 8.140625 12.492188 8.140625 L 4.070312 8.140625 C 1.824219 8.140625 0 6.316406 0 4.070312 C 0 1.824219 1.824219 0 4.070312 0 Z M 4.070312 0 "/>
<path fill-rule="nonzero" fill="rgb(0%, 0%, 0%)" fill-opacity="1" d="M 4.070312 0 C 6.316406 0 8.140625 1.824219 8.140625 4.070312 L 8.140625 19.929688 C 8.140625 22.175781 6.316406 24 4.070312 24 C 1.824219 24 0 22.175781 0 19.929688 L 0 4.070312 C 0 1.824219 1.824219 0 4.070312 0 Z M 4.070312 0 "/>
<path fill-rule="nonzero" fill="rgb(0%, 0%, 0%)" fill-opacity="1" d="M 0 15.859375 L 8.140625 15.859375 L 8.140625 24 L 0 24 Z M 0 15.859375 "/>
<path fill-rule="nonzero" fill="rgb(100%, 100%, 100%)" fill-opacity="1" d="M 4.070312 0.210938 C 6.203125 0.210938 7.929688 1.9375 7.929688 4.070312 L 7.929688 19.507812 C 7.929688 21.640625 6.203125 23.367188 4.070312 23.367188 C 1.9375 23.367188 0.210938 21.640625 0.210938 19.507812 L 0.210938 4.070312 C 0.210938 1.9375 1.9375 0.210938 4.070312 0.210938 Z M 4.070312 0.210938 "/>
<path fill-rule="nonzero" fill="rgb(100%, 100%, 100%)" fill-opacity="1" d="M 4.070312 0.210938 L 12.492188 0.210938 C 14.621094 0.210938 16.351562 1.9375 16.351562 4.070312 C 16.351562 6.203125 14.621094 7.929688 12.492188 7.929688 L 4.070312 7.929688 C 1.9375 7.929688 0.210938 6.203125 0.210938 4.070312 C 0.210938 1.9375 1.9375 0.210938 4.070312 0.210938 Z M 4.070312 0.210938 "/>
<path fill-rule="nonzero" fill="rgb(0%, 0%, 0%)" fill-opacity="1" d="M 4.0625 0.625 C 5.960938 0.625 7.5 2.164062 7.5 4.0625 L 7.5 19.5 C 7.5 21.402344 5.960938 22.941406 4.0625 22.941406 C 2.164062 22.941406 0.625 21.402344 0.625 19.5 L 0.625 4.0625 C 0.625 2.164062 2.164062 0.625 4.0625 0.625 Z M 4.0625 0.625 "/>
<path fill-rule="nonzero" fill="rgb(20%, 20%, 20%)" fill-opacity="1" d="M 5.269531 13.328125 C 5.269531 13.984375 4.734375 14.519531 4.078125 14.519531 C 3.417969 14.519531 2.882812 13.984375 2.882812 13.328125 C 2.882812 12.667969 3.417969 12.132812 4.078125 12.132812 C 4.734375 12.132812 5.269531 12.667969 5.269531 13.328125 Z M 5.269531 13.328125 "/>
<path fill-rule="nonzero" fill="rgb(20%, 20%, 20%)" fill-opacity="1" d="M 5.269531 16.414062 C 5.269531 17.074219 4.734375 17.605469 4.078125 17.605469 C 3.417969 17.605469 2.882812 17.074219 2.882812 16.414062 C 2.882812 15.753906 3.417969 15.222656 4.078125 15.222656 C 4.734375 15.222656 5.269531 15.753906 5.269531 16.414062 Z M 5.269531 16.414062 "/>
<path fill-rule="nonzero" fill="rgb(100%, 100%, 0%)" fill-opacity="1" d="M 5.269531 19.5 C 5.269531 20.160156 4.734375 20.695312 4.078125 20.695312 C 3.417969 20.695312 2.882812 20.160156 2.882812 19.5 C 2.882812 18.84375 3.417969 18.308594 4.078125 18.308594 C 4.734375 18.308594 5.269531 18.84375 5.269531 19.5 Z M 5.269531 19.5 "/>
<path fill-rule="nonzero" fill="rgb(20%, 20%, 20%)" fill-opacity="1" d="M 5.269531 10.238281 C 5.269531 10.898438 4.734375 11.429688 4.078125 11.429688 C 3.417969 11.429688 2.882812 10.898438 2.882812 10.238281 C 2.882812 9.578125 3.417969 9.046875 4.078125 9.046875 C 4.734375 9.046875 5.269531 9.578125 5.269531 10.238281 Z M 5.269531 10.238281 "/>
<path fill-rule="nonzero" fill="rgb(0%, 0%, 0%)" fill-opacity="1" d="M 4.070312 0.632812 L 12.492188 0.632812 C 14.390625 0.632812 15.929688 2.171875 15.929688 4.070312 C 15.929688 5.96875 14.390625 7.507812 12.492188 7.507812 L 4.070312 7.507812 C 2.171875 7.507812 0.632812 5.96875 0.632812 4.070312 C 0.632812 2.171875 2.171875 0.632812 4.070312 0.632812 Z M 4.070312 0.632812 "/>
<path fill-rule="nonzero" fill="rgb(20%, 20%, 20%)" fill-opacity="1" d="M 5.269531 7.152344 C 5.269531 7.808594 4.734375 8.34375 4.078125 8.34375 C 3.417969 8.34375 2.882812 7.808594 2.882812 7.152344 C 2.882812 6.492188 3.417969 5.957031 4.078125 5.957031 C 4.734375 5.957031 5.269531 6.492188 5.269531 7.152344 Z M 5.269531 7.152344 "/>
<path fill-rule="nonzero" fill="rgb(20%, 20%, 20%)" fill-opacity="1" d="M 5.269531 4.0625 C 5.269531 4.722656 4.734375 5.257812 4.078125 5.257812 C 3.417969 5.257812 2.882812 4.722656 2.882812 4.0625 C 2.882812 3.40625 3.417969 2.871094 4.078125 2.871094 C 4.734375 2.871094 5.269531 3.40625 5.269531 4.0625 Z M 5.269531 4.0625 "/>
<path fill-rule="nonzero" fill="rgb(20%, 20%, 20%)" fill-opacity="1" d="M 13.691406 4.0625 C 13.691406 4.722656 13.15625 5.257812 12.5 5.257812 C 11.839844 5.257812 11.304688 4.722656 11.304688 4.0625 C 11.304688 3.40625 11.839844 2.871094 12.5 2.871094 C 13.15625 2.871094 13.691406 3.40625 13.691406 4.0625 Z M 13.691406 4.0625 "/>
<path fill-rule="nonzero" fill="rgb(20%, 20%, 20%)" fill-opacity="1" d="M 3.191406 9.046875 L 4.960938 9.046875 C 5.132812 9.046875 5.269531 9.183594 5.269531 9.351562 L 5.269531 11.125 C 5.269531 11.296875 5.132812 11.433594 4.960938 11.433594 L 3.191406 11.433594 C 3.019531 11.433594 2.882812 11.296875 2.882812 11.125 L 2.882812 9.351562 C 2.882812 9.183594 3.019531 9.046875 3.191406 9.046875 Z M 3.191406 9.046875 "/>
<path fill-rule="nonzero" fill="rgb(20%, 20%, 20%)" fill-opacity="1" d="M 3.191406 5.957031 L 4.960938 5.957031 C 5.132812 5.957031 5.269531 6.09375 5.269531 6.261719 L 5.269531 8.035156 C 5.269531 8.207031 5.132812 8.34375 4.960938 8.34375 L 3.191406 8.34375 C 3.019531 8.34375 2.882812 8.207031 2.882812 8.035156 L 2.882812 6.261719 C 2.882812 6.09375 3.019531 5.957031 3.191406 5.957031 Z M 3.191406 5.957031 "/>
</svg>

<?xml version="1.0" encoding="UTF-8"?>
<svg version="1.1" viewBox="0 0 16.561 24" xmlns="http://www.w3.org/2000/svg"><path d="m0 15.859h8.1406v8.1406h-8.1406z"/><path d="m0 15.859h8.1406v8.1406h-8.1406z"/><path d="m4.0703 0h8.4219c2.2461 0 4.0703 1.8242 4.0703 4.0703s-1.8242 4.0703-4.0703 4.0703h-8.4219c-2.2461 0-4.0703-1.8242-4.0703-4.0703s1.8242-4.0703 4.0703-4.0703z"/><path d="m4.0703 0c2.2461 0 4.0703 1.8242 4.0703 4.0703v15.859c0 2.2461-1.8242 4.0703-4.0703 4.0703s-4.0703-1.8242-4.0703-4.0703v-15.859c0-2.2461 1.8242-4.0703 4.0703-4.0703z"/><path d="m0 15.859h8.1406v8.1406h-8.1406z"/><path d="m4.0703 0.21094c2.1328 0 3.8594 1.7266 3.8594 3.8594v15.438c0 2.1328-1.7266 3.8594-3.8594 3.8594s-3.8594-1.7266-3.8594-3.8594v-15.438c0-2.1328 1.7266-3.8594 3.8594-3.8594z" fill="#fff"/><path d="m4.0703 0.21094h8.4219c2.1289 0 3.8594 1.7266 3.8594 3.8594s-1.7305 3.8594-3.8594 3.8594h-8.4219c-2.1328 0-3.8594-1.7266-3.8594-3.8594s1.7266-3.8594 3.8594-3.8594z" fill="#fff"/><path d="m4.0625 0.625c1.8984 0 3.4375 1.5391 3.4375 3.4375v15.438c0 1.9023-1.5391 3.4414-3.4375 3.4414s-3.4375-1.5391-3.4375-3.4414v-15.438c0-1.8984 1.5391-3.4375 3.4375-3.4375z"/><path d="m5.2695 13.328c0 0.65625-0.53516 1.1914-1.1914 1.1914-0.66016 0-1.1953-0.53516-1.1953-1.1914 0-0.66016 0.53516-1.1953 1.1953-1.1953 0.65625 0 1.1914 0.53516 1.1914 1.1953z" fill="#333"/><path d="m5.2695 16.414c0 0.66016-0.53516 1.1914-1.1914 1.1914-0.66016 0-1.1953-0.53125-1.1953-1.1914 0-0.66016 0.53516-1.1914 1.1953-1.1914 0.65625 0 1.1914 0.53125 1.1914 1.1914z" fill="#333"/><path d="m5.2695 19.5c0 0.66016-0.53516 1.1953-1.1914 1.1953-0.66016 0-1.1953-0.53516-1.1953-1.1953 0-0.65625 0.53516-1.1914 1.1953-1.1914 0.65625 0 1.1914 0.53516 1.1914 1.1914z" fill="#ff0"/><path d="m5.2695 10.238c0 0.66016-0.53516 1.1914-1.1914 1.1914-0.66016 0-1.1953-0.53125-1.1953-1.1914 0-0.66016 0.53516-1.1914 1.1953-1.1914 0.65625 0 1.1914 0.53125 1.1914 1.1914z" fill="#333"/><path d="m4.0703 0.63281h8.4219c1.8984 0 3.4375 1.5391 3.4375 3.4375s-1.5391 3.4375-3.4375 3.4375h-8.4219c-1.8984 0-3.4375-1.5391-3.4375-3.4375s1.5391-3.4375 3.4375-3.4375z"/><g fill="#333"><path d="m5.2695 7.1523c0 0.65625-0.53516 1.1914-1.1914 1.1914-0.66016 0-1.1953-0.53516-1.1953-1.1914 0-0.66016 0.53516-1.1953 1.1953-1.1953 0.65625 0 1.1914 0.53516 1.1914 1.1953z"/><path d="m5.2695 4.0625c0 0.66016-0.53516 1.1953-1.1914 1.1953-0.66016 0-1.1953-0.53516-1.1953-1.1953 0-0.65625 0.53516-1.1914 1.1953-1.1914 0.65625 0 1.1914 0.53516 1.1914 1.1914z"/><path d="m13.691 4.0625c0 0.66016-0.53516 1.1953-1.1914 1.1953-0.66016 0-1.1953-0.53516-1.1953-1.1953 0-0.65625 0.53516-1.1914 1.1953-1.1914 0.65625 0 1.1914 0.53516 1.1914 1.1914z"/><path d="m3.1918 9.0459h1.7684c0.1715 0 0.30928 0.13776 0.30928 0.30645v1.7713c0 0.1715-0.13777 0.30927-0.30928 0.30927h-1.7684c-0.17151 0-0.30928-0.13776-0.30928-0.30927v-1.7713c0-0.16869 0.13777-0.30645 0.30928-0.30645z" stroke-width=".71975"/><path d="m3.1918 5.9567h1.7684c0.1715 0 0.30928 0.13776 0.30928 0.30645v1.7713c0 0.1715-0.13777 0.30927-0.30928 0.30927h-1.7684c-0.17151 0-0.30928-0.13776-0.30928-0.30927v-1.7713c0-0.16869 0.13777-0.30645 0.30928-0.30645z" stroke-width=".71975"/></g></svg>
